icons/theater-setup-speaker-pc.svg

<?xml version="1.0" encoding="UTF-8" standalone="no"?>
<!-- Created with Inkscape (http://www.inkscape.org/) -->

<svg
   xmlns:dc="http://purl.org/dc/elements/1.1/"
   xmlns:cc="http://creativecommons.org/ns#"
   xmlns:rdf="http://www.w3.org/1999/02/22-rdf-syntax-ns#"
   xmlns:svg="http://www.w3.org/2000/svg"
   xmlns="http://www.w3.org/2000/svg"
   xmlns:sodipodi="http://sodipodi.sourceforge.net/DTD/sodipodi-0.dtd"
   xmlns:inkscape="http://www.inkscape.org/namespaces/inkscape"
   width="100"
   height="100"
   viewBox="0 0 93.750018 93.750001"
   id="svg2"
   version="1.1"
   inkscape:version="0.92.1 r"
   sodipodi:docname="theater-setup-speaker-pc.svg">
  <defs
     id="defs4">
    <inkscape:path-effect
       effect="spiro"
       id="path-effect4244"
       is_visible="true" />
    <inkscape:path-effect
       effect="spiro"
       id="path-effect4211"
       is_visible="true" />
    <inkscape:path-effect
       is_visible="true"
       id="path-effect4201"
       effect="spiro" />
    <inkscape:path-effect
       effect="spiro"
       id="path-effect4197"
       is_visible="true" />
    <inkscape:path-effect
       effect="spiro"
       id="path-effect4191"
       is_visible="true" />
    <inkscape:path-effect
       effect="spiro"
       id="path-effect4209"
       is_visible="true" />
    <inkscape:path-effect
       effect="spiro"
       id="path-effect4205"
       is_visible="true" />
  </defs>
  <sodipodi:namedview
     id="base"
     pagecolor="#ffffff"
     bordercolor="#666666"
     borderopacity="1.0"
     inkscape:pageopacity="0.0"
     inkscape:pageshadow="2"
     inkscape:zoom="1.767767"
     inkscape:cx="12.939278"
     inkscape:cy="44.270196"
     inkscape:document-units="px"
     inkscape:current-layer="layer1"
     showgrid="false"
     inkscape:window-width="1438"
     inkscape:window-height="879"
     inkscape:window-x="0"
     inkscape:window-y="19"
     inkscape:window-maximized="1"
     fit-margin-top="0"
     fit-margin-left="0"
     fit-margin-right="0"
     fit-margin-bottom="0"
     units="px"
     inkscape:snap-global="false" />
  <metadata
     id="metadata7">
    <rdf:RDF>
      <cc:Work
         rdf:about="">
        <dc:format>image/svg+xml</dc:format>
        <dc:type
           rdf:resource="http://purl.org/dc/dcmitype/StillImage" />
        <dc:title />
      </cc:Work>
    </rdf:RDF>
  </metadata>
  <g
     inkscape:label="Layer 1"
     inkscape:groupmode="layer"
     id="layer1"
     transform="translate(-748.56058,-568.22992)">
    <g
       id="g6406">
      <g
         transform="translate(0.50817798,0.50814542)"
         id="g6382">
        <path
           style="color:#000000;clip-rule:nonzero;display:inline;overflow:visible;visibility:visible;opacity:1;isolation:auto;mix-blend-mode:normal;color-interpolation:sRGB;color-interpolation-filters:linearRGB;solid-color:#000000;solid-opacity:1;fill:#000000;fill-opacity:1;fill-rule:nonzero;stroke:#000000;stroke-width:3.08152962;stroke-linecap:round;stroke-linejoin:miter;stroke-miterlimit:4;stroke-dasharray:none;stroke-dashoffset:0;stroke-opacity:1;marker:none;color-rendering:auto;image-rendering:auto;shape-rendering:auto;text-rendering:auto;enable-background:accumulate"
           d="m 789.92357,619.3901 c -30.16353,0 1.25392,0.0766 -30.16353,0 0,-3.00498 6.75235,-4.39215 15.08177,-4.39215 8.32943,0 15.08176,1.38717 15.08176,4.39215 z"
           id="path4150-9"
           inkscape:connector-curvature="0"
           sodipodi:nodetypes="ccsc" />
        <rect
           y="571.31146"
           x="751.64209"
           height="36.933567"
           width="46.399494"
           id="rect4134-3"
           style="color:#000000;clip-rule:nonzero;display:inline;overflow:visible;visibility:visible;opacity:1;isolation:auto;mix-blend-mode:normal;color-interpolation:sRGB;color-interpolation-filters:linearRGB;solid-color:#000000;solid-opacity:1;fill:#ffffff;fill-opacity:1;fill-rule:nonzero;stroke:#000000;stroke-width:7.17937565;stroke-linecap:round;stroke-linejoin:miter;stroke-miterlimit:4;stroke-dasharray:none;stroke-dashoffset:0;stroke-opacity:1;marker:none;color-rendering:auto;image-rendering:auto;shape-rendering:auto;text-rendering:auto;enable-background:accumulate"
           ry="5.268198"
           rx="6.1183124" />
        <rect
           style="color:#000000;clip-rule:nonzero;display:inline;overflow:visible;visibility:visible;opacity:1;isolation:auto;mix-blend-mode:normal;color-interpolation:sRGB;color-interpolation-filters:linearRGB;solid-color:#000000;solid-opacity:1;fill:#000000;fill-opacity:1;fill-rule:nonzero;stroke:#000000;stroke-width:0.7703824;stroke-linecap:round;stroke-linejoin:miter;stroke-miterlimit:4;stroke-dasharray:none;stroke-dashoffset:0;stroke-opacity:1;marker:none;color-rendering:auto;image-rendering:auto;shape-rendering:auto;text-rendering:auto;enable-background:accumulate"
           id="rect4275-6"
           width="6.6223807"
           height="5.636292"
           x="771.53064"
           y="610.15656"
           rx="0.63758779"
           ry="0.63758773" />
        <flowRoot
           xml:space="preserve"
           id="flowRoot4277-0"
           style="font-style:normal;font-variant:normal;font-weight:normal;font-stretch:normal;line-height:0.01%;font-family:sans-serif;-inkscape-font-specification:'Sans, Normal';text-align:start;letter-spacing:0px;word-spacing:0px;writing-mode:lr-tb;text-anchor:start;fill:#000000;fill-opacity:1;stroke:none;stroke-width:1px;stroke-linecap:butt;stroke-linejoin:miter;stroke-opacity:1"
           transform="matrix(0.1872662,0,0,0.18561485,608.45463,512.43431)"><flowRegion
             style="font-family:sans-serif"
             id="flowRegion4279-6"><rect
               id="rect4281-2"
               width="259.40906"
               height="265.83008"
               x="787.18677"
               y="308.43478"
               style="font-size:183.29125977px;font-family:sans-serif" /></flowRegion><flowPara
             id="flowPara4283-6"
             style="font-weight:bold;font-size:152.74272156px;line-height:1.25;font-family:sans-serif">pc</flowPara></flowRoot>      </g>
      <rect
         rx="2.1898084"
         ry="2.1898084"
         y="586.66107"
         x="794.06036"
         height="41.516125"
         width="20.86647"
         id="rect4162-1"
         style="color:#000000;clip-rule:nonzero;display:inline;overflow:visible;visibility:visible;opacity:1;isolation:auto;mix-blend-mode:normal;color-interpolation:sRGB;color-interpolation-filters:linearRGB;solid-color:#000000;solid-opacity:1;fill:#ffffff;fill-opacity:1;fill-rule:nonzero;stroke:#000000;stroke-width:3.85191154;stroke-linecap:round;stroke-linejoin:miter;stroke-miterlimit:4;stroke-dasharray:none;stroke-dashoffset:0;stroke-opacity:1;marker:none;color-rendering:auto;image-rendering:auto;shape-rendering:auto;text-rendering:auto;enable-background:accumulate" />
      <ellipse
         ry="2.683692"
         rx="2.6981506"
         cy="620.11115"
         cx="804.49365"
         id="path4166-8"
         style="color:#000000;clip-rule:nonzero;display:inline;overflow:visible;visibility:visible;opacity:1;isolation:auto;mix-blend-mode:normal;color-interpolation:sRGB;color-interpolation-filters:linearRGB;solid-color:#000000;solid-opacity:1;fill:#ffffff;fill-opacity:0.89215686;fill-rule:nonzero;stroke:#000000;stroke-width:2.31114745;stroke-linecap:round;stroke-linejoin:miter;stroke-miterlimit:4;stroke-dasharray:none;stroke-dashoffset:0;stroke-opacity:1;marker:none;color-rendering:auto;image-rendering:auto;shape-rendering:auto;text-rendering:auto;enable-background:accumulate" />
      <g
         transform="matrix(0.19611718,0,0,0.19611718,714.82352,517.50281)"
         id="g6126-7">
        <rect
           ry="3.2510564"
           style="color:#000000;clip-rule:nonzero;display:inline;overflow:visible;visibility:visible;opacity:1;isolation:auto;mix-blend-mode:normal;color-interpolation:sRGB;color-interpolation-filters:linearRGB;solid-color:#000000;solid-opacity:1;fill:#000000;fill-opacity:1;fill-rule:nonzero;stroke:#000000;stroke-width:11.78452206;stroke-linecap:round;stroke-linejoin:miter;stroke-miterlimit:4;stroke-dasharray:none;stroke-dashoffset:0;stroke-opacity:1;marker:none;color-rendering:auto;image-rendering:auto;shape-rendering:auto;text-rendering:auto;enable-background:accumulate"
           id="rect4271-9"
           width="59.126194"
           height="12.093883"
           x="427.66428"
           y="379.18152"
           rx="3.2510567" />
        <rect
           rx="3.2510567"
           y="413.18152"
           x="427.66428"
           height="12.093883"
           width="59.126194"
           id="rect6124-2"
           style="color:#000000;clip-rule:nonzero;display:inline;overflow:visible;visibility:visible;opacity:1;isolation:auto;mix-blend-mode:normal;color-interpolation:sRGB;color-interpolation-filters:linearRGB;solid-color:#000000;solid-opacity:1;fill:#000000;fill-opacity:1;fill-rule:nonzero;stroke:#000000;stroke-width:11.78452206;stroke-linecap:round;stroke-linejoin:miter;stroke-miterlimit:4;stroke-dasharray:none;stroke-dashoffset:0;stroke-opacity:1;marker:none;color-rendering:auto;image-rendering:auto;shape-rendering:auto;text-rendering:auto;enable-background:accumulate"
           ry="3.2510564" />
      </g>
      <path
         style="color:#000000;clip-rule:nonzero;display:inline;overflow:visible;visibility:visible;opacity:1;isolation:auto;mix-blend-mode:normal;color-interpolation:sRGB;color-interpolation-filters:linearRGB;solid-color:#000000;solid-opacity:1;fill:none;fill-opacity:1;fill-rule:nonzero;stroke:#000000;stroke-width:7.17982483;stroke-linecap:round;stroke-linejoin:miter;stroke-miterlimit:4;stroke-dasharray:none;stroke-dashoffset:0;stroke-opacity:1;marker:none;color-rendering:auto;image-rendering:auto;shape-rendering:auto;text-rendering:auto;enable-background:accumulate"
         d="m 825.4182,619.23116 c 0.55022,0.11747 1.09247,0.26218 1.62478,0.43295 5.47519,1.75651 9.90403,6.27045 11.26434,12.26913 2.04778,9.03083 -3.63468,18.00694 -12.69225,20.0487"
         id="path4158-3"
         inkscape:connector-curvature="0"
         sodipodi:nodetypes="cssc" />
      <path
         sodipodi:nodetypes="cssc"
         inkscape:connector-curvature="0"
         id="path4160-6"
         d="m 823.53335,628.97359 c 0.22716,0.0488 0.45103,0.10875 0.67079,0.17959 2.2605,0.72863 4.089,2.60109 4.65056,5.08944 0.84553,3.74613 -1.50056,7.46957 -5.24007,8.31653"
         style="color:#000000;clip-rule:nonzero;display:inline;overflow:visible;visibility:visible;opacity:1;isolation:auto;mix-blend-mode:normal;color-interpolation:sRGB;color-interpolation-filters:linearRGB;solid-color:#000000;solid-opacity:1;fill:none;fill-opacity:1;fill-rule:nonzero;stroke:#000000;stroke-width:7.17982483;stroke-linecap:round;stroke-linejoin:miter;stroke-miterlimit:4;stroke-dasharray:none;stroke-dashoffset:0;stroke-opacity:1;marker:none;color-rendering:auto;image-rendering:auto;shape-rendering:auto;text-rendering:auto;enable-background:accumulate" />
      <path
         style="color:#000000;clip-rule:nonzero;display:inline;overflow:visible;visibility:visible;opacity:1;isolation:auto;mix-blend-mode:normal;color-interpolation:sRGB;color-interpolation-filters:linearRGB;solid-color:#000000;solid-opacity:1;fill:#ffffff;fill-opacity:1;fill-rule:nonzero;stroke:#000000;stroke-width:7.17982483;stroke-linecap:round;stroke-linejoin:miter;stroke-miterlimit:4;stroke-dasharray:none;stroke-dashoffset:0;stroke-opacity:1;marker:none;color-rendering:auto;image-rendering:auto;shape-rendering:auto;text-rendering:auto;enable-background:accumulate"
         d="m 796.14645,643.9786 14.57165,14.41142 c 1.42069,0 2.56444,-1.35947 2.56444,-3.04813 v -40.45122 c 0,-1.68866 -1.14375,-3.04813 -2.56444,-3.04813 l -14.57325,14.38431 -17.78419,-0.0271 c -1.42068,-0.002 -2.56443,1.27264 -2.56443,2.85345 v 12.11381 c 0,1.58081 1.14375,2.85345 2.56443,2.85345 h 17.78251"
         id="path4156-7"
         inkscape:connector-curvature="0"
         sodipodi:nodetypes="ccssccssssc" />
    </g>
  </g>
</svg>

<?xml version="1.0" encoding="UTF-8" standalone="no"?>
<!-- Created with Inkscape (http://www.inkscape.org/) -->

<svg
   xmlns:dc="http://purl.org/dc/elements/1.1/"
   xmlns:cc="http://creativecommons.org/ns#"
   xmlns:rdf="http://www.w3.org/1999/02/22-rdf-syntax-ns#"
   xmlns:svg="http://www.w3.org/2000/svg"
   xmlns="http://www.w3.org/2000/svg"
   xmlns:sodipodi="http://sodipodi.sourceforge.net/DTD/sodipodi-0.dtd"
   xmlns:inkscape="http://www.inkscape.org/namespaces/inkscape"
   width="100"
   height="100"
   viewBox="0 0 100 100"
   id="svg2"
   version="1.1"
   inkscape:version="0.92.1 r"
   sodipodi:docname="theater-setup-speaker-pc.svg">
  <defs
     id="defs4">
    <inkscape:path-effect
       effect="spiro"
       id="path-effect4244"
       is_visible="true" />
    <inkscape:path-effect
       effect="spiro"
       id="path-effect4211"
       is_visible="true" />
    <inkscape:path-effect
       is_visible="true"
       id="path-effect4201"
       effect="spiro" />
    <inkscape:path-effect
       effect="spiro"
       id="path-effect4197"
       is_visible="true" />
    <inkscape:path-effect
       effect="spiro"
       id="path-effect4191"
       is_visible="true" />
    <inkscape:path-effect
       effect="spiro"
       id="path-effect4209"
       is_visible="true" />
    <inkscape:path-effect
       effect="spiro"
       id="path-effect4205"
       is_visible="true" />
  </defs>
  <sodipodi:namedview
     id="base"
     pagecolor="#ffffff"
     bordercolor="#666666"
     borderopacity="1.0"
     inkscape:pageopacity="0.0"
     inkscape:pageshadow="2"
     inkscape:zoom="2.2231009"
     inkscape:cx="14.088218"
     inkscape:cy="34.599627"
     inkscape:document-units="px"
     inkscape:current-layer="layer1"
     showgrid="false"
     inkscape:window-width="1438"
     inkscape:window-height="879"
     inkscape:window-x="0"
     inkscape:window-y="19"
     inkscape:window-maximized="1"
     fit-margin-top="0"
     fit-margin-left="0"
     fit-margin-right="0"
     fit-margin-bottom="0"
     units="px"
     inkscape:snap-global="false" />
  <metadata
     id="metadata7">
    <rdf:RDF>
      <cc:Work
         rdf:about="">
        <dc:format>image/svg+xml</dc:format>
        <dc:type
           rdf:resource="http://purl.org/dc/dcmitype/StillImage" />
        <dc:title></dc:title>
      </cc:Work>
    </rdf:RDF>
  </metadata>
  <g
     inkscape:label="Layer 1"
     inkscape:groupmode="layer"
     id="layer1"
     transform="translate(-748.56058,-568.22992)">
    <g
       id="g6406"
       transform="matrix(1.072192,0,0,1.0721955,-54.299233,-41.282806)"
       style="stroke-width:0.93266726">
      <g
         transform="translate(0.50817798,0.50814542)"
         id="g6382"
         style="stroke-width:0.93266726">
        <path
           style="color:#000000;clip-rule:nonzero;display:inline;overflow:visible;visibility:visible;opacity:1;isolation:auto;mix-blend-mode:normal;color-interpolation:sRGB;color-interpolation-filters:linearRGB;solid-color:#000000;solid-opacity:1;fill:#000000;fill-opacity:1;fill-rule:nonzero;stroke:#000000;stroke-width:2.8740418;stroke-linecap:round;stroke-linejoin:miter;stroke-miterlimit:4;stroke-dasharray:none;stroke-dashoffset:0;stroke-opacity:1;marker:none;color-rendering:auto;image-rendering:auto;shape-rendering:auto;text-rendering:auto;enable-background:accumulate"
           d="M 789.92357,619.3901 C 759.76004,619.3901 791.17749,619.4667 759.76004,619.3901 759.76004,616.38512 766.51239,614.99795 774.84181,614.99795 783.17124,614.99795 789.92357,616.38512 789.92357,619.3901 Z"
           id="path4150-9"
           inkscape:connector-curvature="0"
           sodipodi:nodetypes="ccsc" />
        <rect
           y="571.31146"
           x="751.64209"
           height="36.933567"
           width="46.399494"
           id="rect4134-3"
           style="color:#000000;clip-rule:nonzero;display:inline;overflow:visible;visibility:visible;opacity:1;isolation:auto;mix-blend-mode:normal;color-interpolation:sRGB;color-interpolation-filters:linearRGB;solid-color:#000000;solid-opacity:1;fill:#ffffff;fill-opacity:1;fill-rule:nonzero;stroke:#000000;stroke-width:6.69596863;stroke-linecap:round;stroke-linejoin:miter;stroke-miterlimit:4;stroke-dasharray:none;stroke-dashoffset:0;stroke-opacity:1;marker:none;color-rendering:auto;image-rendering:auto;shape-rendering:auto;text-rendering:auto;enable-background:accumulate"
           ry="5.268198"
           rx="6.1183124" />
        <rect
           style="color:#000000;clip-rule:nonzero;display:inline;overflow:visible;visibility:visible;opacity:1;isolation:auto;mix-blend-mode:normal;color-interpolation:sRGB;color-interpolation-filters:linearRGB;solid-color:#000000;solid-opacity:1;fill:#000000;fill-opacity:1;fill-rule:nonzero;stroke:#000000;stroke-width:0.71851045;stroke-linecap:round;stroke-linejoin:miter;stroke-miterlimit:4;stroke-dasharray:none;stroke-dashoffset:0;stroke-opacity:1;marker:none;color-rendering:auto;image-rendering:auto;shape-rendering:auto;text-rendering:auto;enable-background:accumulate"
           id="rect4275-6"
           width="6.6223807"
           height="5.636292"
           x="771.53064"
           y="610.15656"
           rx="0.63758779"
           ry="0.63758773" />
        <flowRoot
           xml:space="preserve"
           id="flowRoot4277-0"
           style="font-style:normal;font-variant:normal;font-weight:normal;font-stretch:normal;line-height:0.01%;font-family:sans-serif;-inkscape-font-specification:'Sans, Normal';text-align:start;letter-spacing:0px;word-spacing:0px;writing-mode:lr-tb;text-anchor:start;fill:#000000;fill-opacity:1;stroke:none;stroke-width:0.93266726px;stroke-linecap:butt;stroke-linejoin:miter;stroke-opacity:1"
           transform="matrix(0.1872662,0,0,0.18561485,608.45463,512.43431)"><flowRegion
             style="font-family:sans-serif;stroke-width:0.93266726px"
             id="flowRegion4279-6"><rect
               id="rect4281-2"
               width="259.40906"
               height="265.83008"
               x="787.18677"
               y="308.43478"
               style="font-size:183.29125977px;font-family:sans-serif;stroke-width:0.93266726px" /></flowRegion><flowPara
             id="flowPara4283-6"
             style="font-weight:bold;font-size:152.74272156px;line-height:1.25;font-family:sans-serif;stroke-width:0.93266726px">pc</flowPara></flowRoot>      </g>
      <rect
         rx="2.1898084"
         ry="2.1898084"
         y="586.66107"
         x="794.06036"
         height="41.516125"
         width="20.86647"
         id="rect4162-1"
         style="color:#000000;clip-rule:nonzero;display:inline;overflow:visible;visibility:visible;opacity:1;isolation:auto;mix-blend-mode:normal;color-interpolation:sRGB;color-interpolation-filters:linearRGB;solid-color:#000000;solid-opacity:1;fill:#ffffff;fill-opacity:1;fill-rule:nonzero;stroke:#000000;stroke-width:3.59255195;stroke-linecap:round;stroke-linejoin:miter;stroke-miterlimit:4;stroke-dasharray:none;stroke-dashoffset:0;stroke-opacity:1;marker:none;color-rendering:auto;image-rendering:auto;shape-rendering:auto;text-rendering:auto;enable-background:accumulate" />
      <ellipse
         ry="2.683692"
         rx="2.6981506"
         cy="620.11115"
         cx="804.49365"
         id="path4166-8"
         style="color:#000000;clip-rule:nonzero;display:inline;overflow:visible;visibility:visible;opacity:1;isolation:auto;mix-blend-mode:normal;color-interpolation:sRGB;color-interpolation-filters:linearRGB;solid-color:#000000;solid-opacity:1;fill:#ffffff;fill-opacity:0.89215686;fill-rule:nonzero;stroke:#000000;stroke-width:2.15553164;stroke-linecap:round;stroke-linejoin:miter;stroke-miterlimit:4;stroke-dasharray:none;stroke-dashoffset:0;stroke-opacity:1;marker:none;color-rendering:auto;image-rendering:auto;shape-rendering:auto;text-rendering:auto;enable-background:accumulate" />
      <g
         transform="matrix(0.19611718,0,0,0.19611718,714.82352,517.50281)"
         id="g6126-7"
         style="stroke-width:0.93266726">
        <rect
           ry="3.2510564"
           style="color:#000000;clip-rule:nonzero;display:inline;overflow:visible;visibility:visible;opacity:1;isolation:auto;mix-blend-mode:normal;color-interpolation:sRGB;color-interpolation-filters:linearRGB;solid-color:#000000;solid-opacity:1;fill:#000000;fill-opacity:1;fill-rule:nonzero;stroke:#000000;stroke-width:10.99103832;stroke-linecap:round;stroke-linejoin:miter;stroke-miterlimit:4;stroke-dasharray:none;stroke-dashoffset:0;stroke-opacity:1;marker:none;color-rendering:auto;image-rendering:auto;shape-rendering:auto;text-rendering:auto;enable-background:accumulate"
           id="rect4271-9"
           width="59.126194"
           height="12.093883"
           x="427.66428"
           y="379.18152"
           rx="3.2510567" />
        <rect
           rx="3.2510567"
           y="413.18152"
           x="427.66428"
           height="12.093883"
           width="59.126194"
           id="rect6124-2"
           style="color:#000000;clip-rule:nonzero;display:inline;overflow:visible;visibility:visible;opacity:1;isolation:auto;mix-blend-mode:normal;color-interpolation:sRGB;color-interpolation-filters:linearRGB;solid-color:#000000;solid-opacity:1;fill:#000000;fill-opacity:1;fill-rule:nonzero;stroke:#000000;stroke-width:10.99103832;stroke-linecap:round;stroke-linejoin:miter;stroke-miterlimit:4;stroke-dasharray:none;stroke-dashoffset:0;stroke-opacity:1;marker:none;color-rendering:auto;image-rendering:auto;shape-rendering:auto;text-rendering:auto;enable-background:accumulate"
           ry="3.2510564" />
      </g>
      <path
         style="color:#000000;clip-rule:nonzero;display:inline;overflow:visible;visibility:visible;opacity:1;isolation:auto;mix-blend-mode:normal;color-interpolation:sRGB;color-interpolation-filters:linearRGB;solid-color:#000000;solid-opacity:1;fill:none;fill-opacity:1;fill-rule:nonzero;stroke:#000000;stroke-width:6.69638777;stroke-linecap:round;stroke-linejoin:miter;stroke-miterlimit:4;stroke-dasharray:none;stroke-dashoffset:0;stroke-opacity:1;marker:none;color-rendering:auto;image-rendering:auto;shape-rendering:auto;text-rendering:auto;enable-background:accumulate"
         d="M 825.4182,619.23116 C 825.96842,619.34863 826.51067,619.49334 827.04298,619.66411 832.51817,621.42062 836.94701,625.93456 838.30732,631.93324 840.3551,640.96407 834.67264,649.94018 825.61507,651.98194"
         id="path4158-3"
         inkscape:connector-curvature="0"
         sodipodi:nodetypes="cssc" />
      <path
         sodipodi:nodetypes="cssc"
         inkscape:connector-curvature="0"
         id="path4160-6"
         d="M 823.53335,628.97359 C 823.76051,629.02239 823.98438,629.08234 824.20414,629.15318 826.46464,629.88181 828.29314,631.75427 828.8547,634.24262 829.70023,637.98875 827.35414,641.71219 823.61463,642.55915"
         style="color:#000000;clip-rule:nonzero;display:inline;overflow:visible;visibility:visible;opacity:1;isolation:auto;mix-blend-mode:normal;color-interpolation:sRGB;color-interpolation-filters:linearRGB;solid-color:#000000;solid-opacity:1;fill:none;fill-opacity:1;fill-rule:nonzero;stroke:#000000;stroke-width:6.69638777;stroke-linecap:round;stroke-linejoin:miter;stroke-miterlimit:4;stroke-dasharray:none;stroke-dashoffset:0;stroke-opacity:1;marker:none;color-rendering:auto;image-rendering:auto;shape-rendering:auto;text-rendering:auto;enable-background:accumulate" />
      <path
         style="color:#000000;clip-rule:nonzero;display:inline;overflow:visible;visibility:visible;opacity:1;isolation:auto;mix-blend-mode:normal;color-interpolation:sRGB;color-interpolation-filters:linearRGB;solid-color:#000000;solid-opacity:1;fill:#ffffff;fill-opacity:1;fill-rule:nonzero;stroke:#000000;stroke-width:6.69638777;stroke-linecap:round;stroke-linejoin:miter;stroke-miterlimit:4;stroke-dasharray:none;stroke-dashoffset:0;stroke-opacity:1;marker:none;color-rendering:auto;image-rendering:auto;shape-rendering:auto;text-rendering:auto;enable-background:accumulate"
         d="M 796.14645,643.9786 810.7181,658.39002 C 812.13879,658.39002 813.28254,657.03055 813.28254,655.34189 V 614.89067 C 813.28254,613.20201 812.13879,611.84254 810.7181,611.84254 L 796.14485,626.22685 778.36066,626.19975 C 776.93998,626.19775 775.79623,627.47239 775.79623,629.0532 V 641.16701 C 775.79623,642.74782 776.93998,644.02046 778.36066,644.02046 H 796.14317"
         id="path4156-7"
         inkscape:connector-curvature="0"
         sodipodi:nodetypes="ccssccssssc" />
    </g>
  </g>
</svg>
